public/phone-1.svg

<svg width="22" height="22" viewBox="0 0 22 22" fill="none" xmlns="http://www.w3.org/2000/svg">
<path d="M7.02746 1H3.85714C2.27919 1 1 2.27919 1 3.85714V6.71429C1 14.6041 7.39593 21 15.2857 21H18.1429C19.7208 21 21 19.7208 21 18.1429V16.1686C21 15.6275 20.6943 15.1329 20.2103 14.8909L16.759 13.1652C15.9814 12.7764 15.0398 13.1665 14.7648 13.9912L14.3395 15.2673C14.0639 16.094 13.216 16.5861 12.3616 16.4152C8.94184 15.7312 6.26877 13.0582 5.58483 9.63845C5.41395 8.78404 5.90603 7.93608 6.73266 7.66054L8.31641 7.13262C9.02459 6.89657 9.43163 6.15508 9.25058 5.43088L8.41338 2.08209C8.25439 1.44614 7.68299 1 7.02746 1Z" stroke="white" stroke-width="2"/>
</svg>

<svg width="22" height="22" fill="none" xmlns="http://www.w3.org/2000/svg"><path d="M7.027 1h-3.17A2.857 2.857 0 0 0 1 3.857v2.857C1 14.604 7.396 21 15.286 21h2.857A2.857 2.857 0 0 0 21 18.143v-1.974c0-.542-.306-1.036-.79-1.278l-3.451-1.726a1.429 1.429 0 0 0-1.994.826l-.426 1.276a1.728 1.728 0 0 1-1.977 1.148 8.639 8.639 0 0 1-6.777-6.777 1.728 1.728 0 0 1 1.148-1.977l1.583-.528a1.429 1.429 0 0 0 .935-1.702l-.838-3.349A1.429 1.429 0 0 0 7.027 1z" stroke="#fff" stroke-width="2"/></svg>
